X: 169
T: the Mantua Makers
B: 204 Favourite Country Dances
N: Published by Straight & Skillern, London ca.1775
F: http://imslp.org/wiki/204_Favourite_Country_Dances_(Various) p.85 #169
Z: 2014 John Chambers <jc:trillian.mit.edu>
M: C|
L: 1/8
K: Bb
% - - - - - - - - - - - - - - - - - - - - - - - - -
|:\
B2((3GFE) DB,DF | B2 ((3dcB) AFAc |\
B2 ((3GFE) DB,DF | dB FA B2 B,2 :|\
|:\
Bdfd bdcB | ABcA acBA |
GABG gedc | BGAF G2G,2 :|\
|:\
fd (3(dcB) ba ((3agf) | edcB AGFE |\
DFBD EGce | dcBA B2B,2 :|
% - - - - - - - - - - - - - - - - - - - - - - - - -
%%begintext align
%% First Cu. cross over one Cu. and turn, D.o 2d Cu. .|
%% Cast up one Cu. and foot it, cast up 2 Cu. & D.o .|.
%% Cross over and half figure :|. Right & Left :|:
%%endtext

%%sep 1 1 500
%%sep 1 1 500
